(G-CODE GENERATED BY FLATCAM v8.994 - www.flatcam.org - Version Date: 2020/11/7)

(Name: EncoderInterface-B_Cu.gbr_cutout_cnc)
(Type: G-code from Geometry)
(Units: MM)

(Created on Friday, 15 November 2024 at 12:49)

(This preprocessor is used with a motion controller loaded with GRBL firmware.)
(It is configured to be compatible with almost any version of GRBL firmware.)

(TOOL DIAMETER: 1.6 mm)
(Feedrate_XY: 100.0 mm/min)
(Feedrate_Z: 20.0 mm/min)
(Feedrate rapids 1500.0 mm/min)

(Z_Cut: -1.7 mm)
(DepthPerCut: 0.1 mm <=>17 passes)
(Z_Move: 2.0 mm)
(Z Start: None mm)
(Z End: 15.0 mm)
(X,Y End: 0.0000, 0.0000 mm)
(Steps per circle: 64)
(Steps per circle: 64)
(Preprocessor Geometry: grbl_11)

(X range:   -0.8995 ...   28.8395  mm)
(Y range:   -0.8995 ...   21.2195  mm)

(Spindle Speed: 12000.0 RPM)
G21
G90
G17
G94


G01 F100.00

M5             
G00 Z15.0000
G00 X0.0000 Y0.0000                
T1
M6
(MSG, Change to Tool Dia = 1.6000)
M0
G00 Z15.0000

M03 S12000.0
G4 P1.0
G01 F100.00
G00 X-0.8995 Y8.4600
G01 F20.00
G01 Z-0.1000
G01 F100.00
G01 X-0.8995 Y0.0005 F100.00
G01 X-0.8952 Y-0.0877 F100.00
G01 X-0.8822 Y-0.1751 F100.00
G01 X-0.8607 Y-0.2608 F100.00
G01 X-0.8310 Y-0.3439 F100.00
G01 X-0.7932 Y-0.4238 F100.00
G01 X-0.7478 Y-0.4995 F100.00
G01 X-0.6952 Y-0.5705 F100.00
G01 X-0.6359 Y-0.6359 F100.00
G01 X-0.5705 Y-0.6952 F100.00
G01 X-0.4995 Y-0.7478 F100.00
G01 X-0.4238 Y-0.7932 F100.00
G01 X-0.3439 Y-0.8310 F100.00
G01 X-0.2608 Y-0.8607 F100.00
G01 X-0.1751 Y-0.8822 F100.00
G01 X-0.0877 Y-0.8952 F100.00
G01 X0.0005 Y-0.8995 F100.00
G01 X12.2700 Y-0.8995 F100.00
G00 X12.2700 Y-0.8995
G01 F20.00
G01 Z-0.2000
G01 F100.00
G01 X0.0005 Y-0.8995 F100.00
G01 X-0.0877 Y-0.8952 F100.00
G01 X-0.1751 Y-0.8822 F100.00
G01 X-0.2608 Y-0.8607 F100.00
G01 X-0.3439 Y-0.8310 F100.00
G01 X-0.4238 Y-0.7932 F100.00
G01 X-0.4995 Y-0.7478 F100.00
G01 X-0.5705 Y-0.6952 F100.00
G01 X-0.6359 Y-0.6359 F100.00
G01 X-0.6952 Y-0.5705 F100.00
G01 X-0.7478 Y-0.4995 F100.00
G01 X-0.7932 Y-0.4238 F100.00
G01 X-0.8310 Y-0.3439 F100.00
G01 X-0.8607 Y-0.2608 F100.00
G01 X-0.8822 Y-0.1751 F100.00
G01 X-0.8952 Y-0.0877 F100.00
G01 X-0.8995 Y0.0005 F100.00
G01 X-0.8995 Y8.4600 F100.00
G00 X-0.8995 Y8.4600
G01 F20.00
G01 Z-0.3000
G01 F100.00
G01 X-0.8995 Y0.0005 F100.00
G01 X-0.8952 Y-0.0877 F100.00
G01 X-0.8822 Y-0.1751 F100.00
G01 X-0.8607 Y-0.2608 F100.00
G01 X-0.8310 Y-0.3439 F100.00
G01 X-0.7932 Y-0.4238 F100.00
G01 X-0.7478 Y-0.4995 F100.00
G01 X-0.6952 Y-0.5705 F100.00
G01 X-0.6359 Y-0.6359 F100.00
G01 X-0.5705 Y-0.6952 F100.00
G01 X-0.4995 Y-0.7478 F100.00
G01 X-0.4238 Y-0.7932 F100.00
G01 X-0.3439 Y-0.8310 F100.00
G01 X-0.2608 Y-0.8607 F100.00
G01 X-0.1751 Y-0.8822 F100.00
G01 X-0.0877 Y-0.8952 F100.00
G01 X0.0005 Y-0.8995 F100.00
G01 X12.2700 Y-0.8995 F100.00
G00 X12.2700 Y-0.8995
G01 F20.00
G01 Z-0.4000
G01 F100.00
G01 X0.0005 Y-0.8995 F100.00
G01 X-0.0877 Y-0.8952 F100.00
G01 X-0.1751 Y-0.8822 F100.00
G01 X-0.2608 Y-0.8607 F100.00
G01 X-0.3439 Y-0.8310 F100.00
G01 X-0.4238 Y-0.7932 F100.00
G01 X-0.4995 Y-0.7478 F100.00
G01 X-0.5705 Y-0.6952 F100.00
G01 X-0.6359 Y-0.6359 F100.00
G01 X-0.6952 Y-0.5705 F100.00
G01 X-0.7478 Y-0.4995 F100.00
G01 X-0.7932 Y-0.4238 F100.00
G01 X-0.8310 Y-0.3439 F100.00
G01 X-0.8607 Y-0.2608 F100.00
G01 X-0.8822 Y-0.1751 F100.00
G01 X-0.8952 Y-0.0877 F100.00
G01 X-0.8995 Y0.0005 F100.00
G01 X-0.8995 Y8.4600 F100.00
G00 X-0.8995 Y8.4600
G01 F20.00
G01 Z-0.5000
G01 F100.00
G01 X-0.8995 Y0.0005 F100.00
G01 X-0.8952 Y-0.0877 F100.00
G01 X-0.8822 Y-0.1751 F100.00
G01 X-0.8607 Y-0.2608 F100.00
G01 X-0.8310 Y-0.3439 F100.00
G01 X-0.7932 Y-0.4238 F100.00
G01 X-0.7478 Y-0.4995 F100.00
G01 X-0.6952 Y-0.5705 F100.00
G01 X-0.6359 Y-0.6359 F100.00
G01 X-0.5705 Y-0.6952 F100.00
G01 X-0.4995 Y-0.7478 F100.00
G01 X-0.4238 Y-0.7932 F100.00
G01 X-0.3439 Y-0.8310 F100.00
G01 X-0.2608 Y-0.8607 F100.00
G01 X-0.1751 Y-0.8822 F100.00
G01 X-0.0877 Y-0.8952 F100.00
G01 X0.0005 Y-0.8995 F100.00
G01 X12.2700 Y-0.8995 F100.00
G00 X12.2700 Y-0.8995
G01 F20.00
G01 Z-0.6000
G01 F100.00
G01 X0.0005 Y-0.8995 F100.00
G01 X-0.0877 Y-0.8952 F100.00
G01 X-0.1751 Y-0.8822 F100.00
G01 X-0.2608 Y-0.8607 F100.00
G01 X-0.3439 Y-0.8310 F100.00
G01 X-0.4238 Y-0.7932 F100.00
G01 X-0.4995 Y-0.7478 F100.00
G01 X-0.5705 Y-0.6952 F100.00
G01 X-0.6359 Y-0.6359 F100.00
G01 X-0.6952 Y-0.5705 F100.00
G01 X-0.7478 Y-0.4995 F100.00
G01 X-0.7932 Y-0.4238 F100.00
G01 X-0.8310 Y-0.3439 F100.00
G01 X-0.8607 Y-0.2608 F100.00
G01 X-0.8822 Y-0.1751 F100.00
G01 X-0.8952 Y-0.0877 F100.00
G01 X-0.8995 Y0.0005 F100.00
G01 X-0.8995 Y8.4600 F100.00
G00 X-0.8995 Y8.4600
G01 F20.00
G01 Z-0.7000
G01 F100.00
G01 X-0.8995 Y0.0005 F100.00
G01 X-0.8952 Y-0.0877 F100.00
G01 X-0.8822 Y-0.1751 F100.00
G01 X-0.8607 Y-0.2608 F100.00
G01 X-0.8310 Y-0.3439 F100.00
G01 X-0.7932 Y-0.4238 F100.00
G01 X-0.7478 Y-0.4995 F100.00
G01 X-0.6952 Y-0.5705 F100.00
G01 X-0.6359 Y-0.6359 F100.00
G01 X-0.5705 Y-0.6952 F100.00
G01 X-0.4995 Y-0.7478 F100.00
G01 X-0.4238 Y-0.7932 F100.00
G01 X-0.3439 Y-0.8310 F100.00
G01 X-0.2608 Y-0.8607 F100.00
G01 X-0.1751 Y-0.8822 F100.00
G01 X-0.0877 Y-0.8952 F100.00
G01 X0.0005 Y-0.8995 F100.00
G01 X12.2700 Y-0.8995 F100.00
G00 X12.2700 Y-0.8995
G01 F20.00
G01 Z-0.8000
G01 F100.00
G01 X0.0005 Y-0.8995 F100.00
G01 X-0.0877 Y-0.8952 F100.00
G01 X-0.1751 Y-0.8822 F100.00
G01 X-0.2608 Y-0.8607 F100.00
G01 X-0.3439 Y-0.8310 F100.00
G01 X-0.4238 Y-0.7932 F100.00
G01 X-0.4995 Y-0.7478 F100.00
G01 X-0.5705 Y-0.6952 F100.00
G01 X-0.6359 Y-0.6359 F100.00
G01 X-0.6952 Y-0.5705 F100.00
G01 X-0.7478 Y-0.4995 F100.00
G01 X-0.7932 Y-0.4238 F100.00
G01 X-0.8310 Y-0.3439 F100.00
G01 X-0.8607 Y-0.2608 F100.00
G01 X-0.8822 Y-0.1751 F100.00
G01 X-0.8952 Y-0.0877 F100.00
G01 X-0.8995 Y0.0005 F100.00
G01 X-0.8995 Y8.4600 F100.00
G00 X-0.8995 Y8.4600
G01 F20.00
G01 Z-0.9000
G01 F100.00
G01 X-0.8995 Y0.0005 F100.00
G01 X-0.8952 Y-0.0877 F100.00
G01 X-0.8822 Y-0.1751 F100.00
G01 X-0.8607 Y-0.2608 F100.00
G01 X-0.8310 Y-0.3439 F100.00
G01 X-0.7932 Y-0.4238 F100.00
G01 X-0.7478 Y-0.4995 F100.00
G01 X-0.6952 Y-0.5705 F100.00
G01 X-0.6359 Y-0.6359 F100.00
G01 X-0.5705 Y-0.6952 F100.00
G01 X-0.4995 Y-0.7478 F100.00
G01 X-0.4238 Y-0.7932 F100.00
G01 X-0.3439 Y-0.8310 F100.00
G01 X-0.2608 Y-0.8607 F100.00
G01 X-0.1751 Y-0.8822 F100.00
G01 X-0.0877 Y-0.8952 F100.00
G01 X0.0005 Y-0.8995 F100.00
G01 X12.2700 Y-0.8995 F100.00
G00 X12.2700 Y-0.8995
G01 F20.00
G01 Z-1.0000
G01 F100.00
G01 X0.0005 Y-0.8995 F100.00
G01 X-0.0877 Y-0.8952 F100.00
G01 X-0.1751 Y-0.8822 F100.00
G01 X-0.2608 Y-0.8607 F100.00
G01 X-0.3439 Y-0.8310 F100.00
G01 X-0.4238 Y-0.7932 F100.00
G01 X-0.4995 Y-0.7478 F100.00
G01 X-0.5705 Y-0.6952 F100.00
G01 X-0.6359 Y-0.6359 F100.00
G01 X-0.6952 Y-0.5705 F100.00
G01 X-0.7478 Y-0.4995 F100.00
G01 X-0.7932 Y-0.4238 F100.00
G01 X-0.8310 Y-0.3439 F100.00
G01 X-0.8607 Y-0.2608 F100.00
G01 X-0.8822 Y-0.1751 F100.00
G01 X-0.8952 Y-0.0877 F100.00
G01 X-0.8995 Y0.0005 F100.00
G01 X-0.8995 Y8.4600 F100.00
G00 X-0.8995 Y8.4600
G01 F20.00
G01 Z-1.1000
G01 F100.00
G01 X-0.8995 Y0.0005 F100.00
G01 X-0.8952 Y-0.0877 F100.00
G01 X-0.8822 Y-0.1751 F100.00
G01 X-0.8607 Y-0.2608 F100.00
G01 X-0.8310 Y-0.3439 F100.00
G01 X-0.7932 Y-0.4238 F100.00
G01 X-0.7478 Y-0.4995 F100.00
G01 X-0.6952 Y-0.5705 F100.00
G01 X-0.6359 Y-0.6359 F100.00
G01 X-0.5705 Y-0.6952 F100.00
G01 X-0.4995 Y-0.7478 F100.00
G01 X-0.4238 Y-0.7932 F100.00
G01 X-0.3439 Y-0.8310 F100.00
G01 X-0.2608 Y-0.8607 F100.00
G01 X-0.1751 Y-0.8822 F100.00
G01 X-0.0877 Y-0.8952 F100.00
G01 X0.0005 Y-0.8995 F100.00
G01 X12.2700 Y-0.8995 F100.00
G00 X12.2700 Y-0.8995
G01 F20.00
G01 Z-1.2000
G01 F100.00
G01 X0.0005 Y-0.8995 F100.00
G01 X-0.0877 Y-0.8952 F100.00
G01 X-0.1751 Y-0.8822 F100.00
G01 X-0.2608 Y-0.8607 F100.00
G01 X-0.3439 Y-0.8310 F100.00
G01 X-0.4238 Y-0.7932 F100.00
G01 X-0.4995 Y-0.7478 F100.00
G01 X-0.5705 Y-0.6952 F100.00
G01 X-0.6359 Y-0.6359 F100.00
G01 X-0.6952 Y-0.5705 F100.00
G01 X-0.7478 Y-0.4995 F100.00
G01 X-0.7932 Y-0.4238 F100.00
G01 X-0.8310 Y-0.3439 F100.00
G01 X-0.8607 Y-0.2608 F100.00
G01 X-0.8822 Y-0.1751 F100.00
G01 X-0.8952 Y-0.0877 F100.00
G01 X-0.8995 Y0.0005 F100.00
G01 X-0.8995 Y8.4600 F100.00
G00 X-0.8995 Y8.4600
G01 F20.00
G01 Z-1.3000
G01 F100.00
G01 X-0.8995 Y0.0005 F100.00
G01 X-0.8952 Y-0.0877 F100.00
G01 X-0.8822 Y-0.1751 F100.00
G01 X-0.8607 Y-0.2608 F100.00
G01 X-0.8310 Y-0.3439 F100.00
G01 X-0.7932 Y-0.4238 F100.00
G01 X-0.7478 Y-0.4995 F100.00
G01 X-0.6952 Y-0.5705 F100.00
G01 X-0.6359 Y-0.6359 F100.00
G01 X-0.5705 Y-0.6952 F100.00
G01 X-0.4995 Y-0.7478 F100.00
G01 X-0.4238 Y-0.7932 F100.00
G01 X-0.3439 Y-0.8310 F100.00
G01 X-0.2608 Y-0.8607 F100.00
G01 X-0.1751 Y-0.8822 F100.00
G01 X-0.0877 Y-0.8952 F100.00
G01 X0.0005 Y-0.8995 F100.00
G01 X12.2700 Y-0.8995 F100.00
G00 X12.2700 Y-0.8995
G01 F20.00
G01 Z-1.4000
G01 F100.00
G01 X0.0005 Y-0.8995 F100.00
G01 X-0.0877 Y-0.8952 F100.00
G01 X-0.1751 Y-0.8822 F100.00
G01 X-0.2608 Y-0.8607 F100.00
G01 X-0.3439 Y-0.8310 F100.00
G01 X-0.4238 Y-0.7932 F100.00
G01 X-0.4995 Y-0.7478 F100.00
G01 X-0.5705 Y-0.6952 F100.00
G01 X-0.6359 Y-0.6359 F100.00
G01 X-0.6952 Y-0.5705 F100.00
G01 X-0.7478 Y-0.4995 F100.00
G01 X-0.7932 Y-0.4238 F100.00
G01 X-0.8310 Y-0.3439 F100.00
G01 X-0.8607 Y-0.2608 F100.00
G01 X-0.8822 Y-0.1751 F100.00
G01 X-0.8952 Y-0.0877 F100.00
G01 X-0.8995 Y0.0005 F100.00
G01 X-0.8995 Y8.4600 F100.00
G00 X-0.8995 Y8.4600
G01 F20.00
G01 Z-1.5000
G01 F100.00
G01 X-0.8995 Y0.0005 F100.00
G01 X-0.8952 Y-0.0877 F100.00
G01 X-0.8822 Y-0.1751 F100.00
G01 X-0.8607 Y-0.2608 F100.00
G01 X-0.8310 Y-0.3439 F100.00
G01 X-0.7932 Y-0.4238 F100.00
G01 X-0.7478 Y-0.4995 F100.00
G01 X-0.6952 Y-0.5705 F100.00
G01 X-0.6359 Y-0.6359 F100.00
G01 X-0.5705 Y-0.6952 F100.00
G01 X-0.4995 Y-0.7478 F100.00
G01 X-0.4238 Y-0.7932 F100.00
G01 X-0.3439 Y-0.8310 F100.00
G01 X-0.2608 Y-0.8607 F100.00
G01 X-0.1751 Y-0.8822 F100.00
G01 X-0.0877 Y-0.8952 F100.00
G01 X0.0005 Y-0.8995 F100.00
G01 X12.2700 Y-0.8995 F100.00
G00 X12.2700 Y-0.8995
G01 F20.00
G01 Z-1.6000
G01 F100.00
G01 X0.0005 Y-0.8995 F100.00
G01 X-0.0877 Y-0.8952 F100.00
G01 X-0.1751 Y-0.8822 F100.00
G01 X-0.2608 Y-0.8607 F100.00
G01 X-0.3439 Y-0.8310 F100.00
G01 X-0.4238 Y-0.7932 F100.00
G01 X-0.4995 Y-0.7478 F100.00
G01 X-0.5705 Y-0.6952 F100.00
G01 X-0.6359 Y-0.6359 F100.00
G01 X-0.6952 Y-0.5705 F100.00
G01 X-0.7478 Y-0.4995 F100.00
G01 X-0.7932 Y-0.4238 F100.00
G01 X-0.8310 Y-0.3439 F100.00
G01 X-0.8607 Y-0.2608 F100.00
G01 X-0.8822 Y-0.1751 F100.00
G01 X-0.8952 Y-0.0877 F100.00
G01 X-0.8995 Y0.0005 F100.00
G01 X-0.8995 Y8.4600 F100.00
G00 X-0.8995 Y8.4600
G01 F20.00
G01 Z-1.7000
G01 F100.00
G01 X-0.8995 Y0.0005 F100.00
G01 X-0.8952 Y-0.0877 F100.00
G01 X-0.8822 Y-0.1751 F100.00
G01 X-0.8607 Y-0.2608 F100.00
G01 X-0.8310 Y-0.3439 F100.00
G01 X-0.7932 Y-0.4238 F100.00
G01 X-0.7478 Y-0.4995 F100.00
G01 X-0.6952 Y-0.5705 F100.00
G01 X-0.6359 Y-0.6359 F100.00
G01 X-0.5705 Y-0.6952 F100.00
G01 X-0.4995 Y-0.7478 F100.00
G01 X-0.4238 Y-0.7932 F100.00
G01 X-0.3439 Y-0.8310 F100.00
G01 X-0.2608 Y-0.8607 F100.00
G01 X-0.1751 Y-0.8822 F100.00
G01 X-0.0877 Y-0.8952 F100.00
G01 X0.0005 Y-0.8995 F100.00
G01 X12.2700 Y-0.8995 F100.00
G00 Z2.0000
G00 X-0.8995 Y12.0600
G01 F20.00
G01 Z-0.1000
G01 F100.00
G01 X-0.8995 Y20.3195 F100.00
G01 X-0.8952 Y20.4077 F100.00
G01 X-0.8822 Y20.4951 F100.00
G01 X-0.8607 Y20.5808 F100.00
G01 X-0.8310 Y20.6639 F100.00
G01 X-0.7932 Y20.7438 F100.00
G01 X-0.7478 Y20.8195 F100.00
G01 X-0.6952 Y20.8905 F100.00
G01 X-0.6359 Y20.9559 F100.00
G01 X-0.5705 Y21.0152 F100.00
G01 X-0.4995 Y21.0678 F100.00
G01 X-0.4238 Y21.1132 F100.00
G01 X-0.3439 Y21.1510 F100.00
G01 X-0.2608 Y21.1807 F100.00
G01 X-0.1751 Y21.2022 F100.00
G01 X-0.0877 Y21.2152 F100.00
G01 X0.0005 Y21.2195 F100.00
G01 X12.2700 Y21.2195 F100.00
G00 X12.2700 Y21.2195
G01 F20.00
G01 Z-0.2000
G01 F100.00
G01 X0.0005 Y21.2195 F100.00
G01 X-0.0877 Y21.2152 F100.00
G01 X-0.1751 Y21.2022 F100.00
G01 X-0.2608 Y21.1807 F100.00
G01 X-0.3439 Y21.1510 F100.00
G01 X-0.4238 Y21.1132 F100.00
G01 X-0.4995 Y21.0678 F100.00
G01 X-0.5705 Y21.0152 F100.00
G01 X-0.6359 Y20.9559 F100.00
G01 X-0.6952 Y20.8905 F100.00
G01 X-0.7478 Y20.8195 F100.00
G01 X-0.7932 Y20.7438 F100.00
G01 X-0.8310 Y20.6639 F100.00
G01 X-0.8607 Y20.5808 F100.00
G01 X-0.8822 Y20.4951 F100.00
G01 X-0.8952 Y20.4077 F100.00
G01 X-0.8995 Y20.3195 F100.00
G01 X-0.8995 Y12.0600 F100.00
G00 X-0.8995 Y12.0600
G01 F20.00
G01 Z-0.3000
G01 F100.00
G01 X-0.8995 Y20.3195 F100.00
G01 X-0.8952 Y20.4077 F100.00
G01 X-0.8822 Y20.4951 F100.00
G01 X-0.8607 Y20.5808 F100.00
G01 X-0.8310 Y20.6639 F100.00
G01 X-0.7932 Y20.7438 F100.00
G01 X-0.7478 Y20.8195 F100.00
G01 X-0.6952 Y20.8905 F100.00
G01 X-0.6359 Y20.9559 F100.00
G01 X-0.5705 Y21.0152 F100.00
G01 X-0.4995 Y21.0678 F100.00
G01 X-0.4238 Y21.1132 F100.00
G01 X-0.3439 Y21.1510 F100.00
G01 X-0.2608 Y21.1807 F100.00
G01 X-0.1751 Y21.2022 F100.00
G01 X-0.0877 Y21.2152 F100.00
G01 X0.0005 Y21.2195 F100.00
G01 X12.2700 Y21.2195 F100.00
G00 X12.2700 Y21.2195
G01 F20.00
G01 Z-0.4000
G01 F100.00
G01 X0.0005 Y21.2195 F100.00
G01 X-0.0877 Y21.2152 F100.00
G01 X-0.1751 Y21.2022 F100.00
G01 X-0.2608 Y21.1807 F100.00
G01 X-0.3439 Y21.1510 F100.00
G01 X-0.4238 Y21.1132 F100.00
G01 X-0.4995 Y21.0678 F100.00
G01 X-0.5705 Y21.0152 F100.00
G01 X-0.6359 Y20.9559 F100.00
G01 X-0.6952 Y20.8905 F100.00
G01 X-0.7478 Y20.8195 F100.00
G01 X-0.7932 Y20.7438 F100.00
G01 X-0.8310 Y20.6639 F100.00
G01 X-0.8607 Y20.5808 F100.00
G01 X-0.8822 Y20.4951 F100.00
G01 X-0.8952 Y20.4077 F100.00
G01 X-0.8995 Y20.3195 F100.00
G01 X-0.8995 Y12.0600 F100.00
G00 X-0.8995 Y12.0600
G01 F20.00
G01 Z-0.5000
G01 F100.00
G01 X-0.8995 Y20.3195 F100.00
G01 X-0.8952 Y20.4077 F100.00
G01 X-0.8822 Y20.4951 F100.00
G01 X-0.8607 Y20.5808 F100.00
G01 X-0.8310 Y20.6639 F100.00
G01 X-0.7932 Y20.7438 F100.00
G01 X-0.7478 Y20.8195 F100.00
G01 X-0.6952 Y20.8905 F100.00
G01 X-0.6359 Y20.9559 F100.00
G01 X-0.5705 Y21.0152 F100.00
G01 X-0.4995 Y21.0678 F100.00
G01 X-0.4238 Y21.1132 F100.00
G01 X-0.3439 Y21.1510 F100.00
G01 X-0.2608 Y21.1807 F100.00
G01 X-0.1751 Y21.2022 F100.00
G01 X-0.0877 Y21.2152 F100.00
G01 X0.0005 Y21.2195 F100.00
G01 X12.2700 Y21.2195 F100.00
G00 X12.2700 Y21.2195
G01 F20.00
G01 Z-0.6000
G01 F100.00
G01 X0.0005 Y21.2195 F100.00
G01 X-0.0877 Y21.2152 F100.00
G01 X-0.1751 Y21.2022 F100.00
G01 X-0.2608 Y21.1807 F100.00
G01 X-0.3439 Y21.1510 F100.00
G01 X-0.4238 Y21.1132 F100.00
G01 X-0.4995 Y21.0678 F100.00
G01 X-0.5705 Y21.0152 F100.00
G01 X-0.6359 Y20.9559 F100.00
G01 X-0.6952 Y20.8905 F100.00
G01 X-0.7478 Y20.8195 F100.00
G01 X-0.7932 Y20.7438 F100.00
G01 X-0.8310 Y20.6639 F100.00
G01 X-0.8607 Y20.5808 F100.00
G01 X-0.8822 Y20.4951 F100.00
G01 X-0.8952 Y20.4077 F100.00
G01 X-0.8995 Y20.3195 F100.00
G01 X-0.8995 Y12.0600 F100.00
G00 X-0.8995 Y12.0600
G01 F20.00
G01 Z-0.7000
G01 F100.00
G01 X-0.8995 Y20.3195 F100.00
G01 X-0.8952 Y20.4077 F100.00
G01 X-0.8822 Y20.4951 F100.00
G01 X-0.8607 Y20.5808 F100.00
G01 X-0.8310 Y20.6639 F100.00
G01 X-0.7932 Y20.7438 F100.00
G01 X-0.7478 Y20.8195 F100.00
G01 X-0.6952 Y20.8905 F100.00
G01 X-0.6359 Y20.9559 F100.00
G01 X-0.5705 Y21.0152 F100.00
G01 X-0.4995 Y21.0678 F100.00
G01 X-0.4238 Y21.1132 F100.00
G01 X-0.3439 Y21.1510 F100.00
G01 X-0.2608 Y21.1807 F100.00
G01 X-0.1751 Y21.2022 F100.00
G01 X-0.0877 Y21.2152 F100.00
G01 X0.0005 Y21.2195 F100.00
G01 X12.2700 Y21.2195 F100.00
G00 X12.2700 Y21.2195
G01 F20.00
G01 Z-0.8000
G01 F100.00
G01 X0.0005 Y21.2195 F100.00
G01 X-0.0877 Y21.2152 F100.00
G01 X-0.1751 Y21.2022 F100.00
G01 X-0.2608 Y21.1807 F100.00
G01 X-0.3439 Y21.1510 F100.00
G01 X-0.4238 Y21.1132 F100.00
G01 X-0.4995 Y21.0678 F100.00
G01 X-0.5705 Y21.0152 F100.00
G01 X-0.6359 Y20.9559 F100.00
G01 X-0.6952 Y20.8905 F100.00
G01 X-0.7478 Y20.8195 F100.00
G01 X-0.7932 Y20.7438 F100.00
G01 X-0.8310 Y20.6639 F100.00
G01 X-0.8607 Y20.5808 F100.00
G01 X-0.8822 Y20.4951 F100.00
G01 X-0.8952 Y20.4077 F100.00
G01 X-0.8995 Y20.3195 F100.00
G01 X-0.8995 Y12.0600 F100.00
G00 X-0.8995 Y12.0600
G01 F20.00
G01 Z-0.9000
G01 F100.00
G01 X-0.8995 Y20.3195 F100.00
