(G-CODE GENERATED BY FLATCAM v8.994 - www.flatcam.org - Version Date: 2020/11/7)

(Name: EncoderInterface.drl_mill_cnc)
(Type: G-code from Geometry)
(Units: MM)

(Created on Thursday, 14 November 2024 at 18:41)

(This preprocessor is the default preprocessor used by FlatCAM.)
(It is made to work with MACH3 compatible motion controllers.)

(TOOL DIAMETER: 0.8 mm)
(Feedrate_XY: 50.0 mm/min)
(Feedrate_Z: 20.0 mm/min)
(Feedrate rapids 1500.0 mm/min)

(Z_Cut: -2.0 mm)
(DepthPerCut: 0.2 mm <=>10 passes)
(Z_Move: 2.0 mm)
(Z Start: None mm)
(Z End: 15.0 mm)
(X,Y End: 0.0000, 0.0000 mm)
(Steps per circle: 64)
(Preprocessor Geometry: default)

(X range:    2.6100 ...    5.0100  mm)
(Y range:   15.5640 ...   17.9640  mm)

(Spindle Speed: 12000.0 RPM)
G21
G90
G94

G01 F50.00

M5
G00 Z15.0000
G00 X0.0000 Y0.0000
T1
M6    
(MSG, Change to Tool Dia = 0.8000)
M0
G00 Z15.0000

M03 S12000.0
G4 P1.0
G01 F50.00
G00 X5.0100 Y16.7640
G01 F20.00
G01 Z-0.2000
G01 F50.00
G01 X5.0042 Y16.6464
G01 X4.9869 Y16.5299
G01 X4.9583 Y16.4157
G01 X4.9187 Y16.3048
G01 X4.8683 Y16.1983
G01 X4.8078 Y16.0973
G01 X4.7376 Y16.0027
G01 X4.6585 Y15.9155
G01 X4.5713 Y15.8364
G01 X4.4767 Y15.7662
G01 X4.3757 Y15.7057
G01 X4.2692 Y15.6553
G01 X4.1583 Y15.6157
G01 X4.0441 Y15.5871
G01 X3.9276 Y15.5698
G01 X3.8100 Y15.5640
G01 X3.6924 Y15.5698
G01 X3.5759 Y15.5871
G01 X3.4617 Y15.6157
G01 X3.3508 Y15.6553
G01 X3.2443 Y15.7057
G01 X3.1433 Y15.7662
G01 X3.0487 Y15.8364
G01 X2.9615 Y15.9155
G01 X2.8824 Y16.0027
G01 X2.8122 Y16.0973
G01 X2.7517 Y16.1983
G01 X2.7013 Y16.3048
G01 X2.6617 Y16.4157
G01 X2.6331 Y16.5299
G01 X2.6158 Y16.6464
G01 X2.6100 Y16.7640
G01 X2.6158 Y16.8816
G01 X2.6331 Y16.9981
G01 X2.6617 Y17.1123
G01 X2.7013 Y17.2232
G01 X2.7517 Y17.3297
G01 X2.8122 Y17.4307
G01 X2.8824 Y17.5253
G01 X2.9615 Y17.6125
G01 X3.0487 Y17.6916
G01 X3.1433 Y17.7618
G01 X3.2443 Y17.8223
G01 X3.3508 Y17.8727
G01 X3.4617 Y17.9123
G01 X3.5759 Y17.9409
G01 X3.6924 Y17.9582
G01 X3.8100 Y17.9640
G01 X3.9276 Y17.9582
G01 X4.0441 Y17.9409
G01 X4.1583 Y17.9123
G01 X4.2692 Y17.8727
G01 X4.3757 Y17.8223
G01 X4.4767 Y17.7618
G01 X4.5713 Y17.6916
G01 X4.6585 Y17.6125
G01 X4.7376 Y17.5253
G01 X4.8078 Y17.4307
G01 X4.8683 Y17.3297
G01 X4.9187 Y17.2232
G01 X4.9583 Y17.1123
G01 X4.9869 Y16.9981
G01 X5.0042 Y16.8816
G01 X5.0100 Y16.7640
G00 X5.0100 Y16.7640
G01 F20.00
G01 Z-0.4000
G01 F50.00
G01 X5.0042 Y16.6464
G01 X4.9869 Y16.5299
G01 X4.9583 Y16.4157
G01 X4.9187 Y16.3048
G01 X4.8683 Y16.1983
G01 X4.8078 Y16.0973
G01 X4.7376 Y16.0027
G01 X4.6585 Y15.9155
G01 X4.5713 Y15.8364
G01 X4.4767 Y15.7662
G01 X4.3757 Y15.7057
G01 X4.2692 Y15.6553
G01 X4.1583 Y15.6157
G01 X4.0441 Y15.5871
G01 X3.9276 Y15.5698
G01 X3.8100 Y15.5640
G01 X3.6924 Y15.5698
G01 X3.5759 Y15.5871
G01 X3.4617 Y15.6157
G01 X3.3508 Y15.6553
G01 X3.2443 Y15.7057
G01 X3.1433 Y15.7662
G01 X3.0487 Y15.8364
G01 X2.9615 Y15.9155
G01 X2.8824 Y16.0027
G01 X2.8122 Y16.0973
G01 X2.7517 Y16.1983
G01 X2.7013 Y16.3048
G01 X2.6617 Y16.4157
G01 X2.6331 Y16.5299
G01 X2.6158 Y16.6464
G01 X2.6100 Y16.7640
G01 X2.6158 Y16.8816
G01 X2.6331 Y16.9981
G01 X2.6617 Y17.1123
G01 X2.7013 Y17.2232
G01 X2.7517 Y17.3297
G01 X2.8122 Y17.4307
G01 X2.8824 Y17.5253
G01 X2.9615 Y17.6125
G01 X3.0487 Y17.6916
G01 X3.1433 Y17.7618
G01 X3.2443 Y17.8223
G01 X3.3508 Y17.8727
G01 X3.4617 Y17.9123
G01 X3.5759 Y17.9409
G01 X3.6924 Y17.9582
G01 X3.8100 Y17.9640
G01 X3.9276 Y17.9582
G01 X4.0441 Y17.9409
G01 X4.1583 Y17.9123
G01 X4.2692 Y17.8727
G01 X4.3757 Y17.8223
G01 X4.4767 Y17.7618
G01 X4.5713 Y17.6916
G01 X4.6585 Y17.6125
G01 X4.7376 Y17.5253
G01 X4.8078 Y17.4307
G01 X4.8683 Y17.3297
G01 X4.9187 Y17.2232
G01 X4.9583 Y17.1123
G01 X4.9869 Y16.9981
G01 X5.0042 Y16.8816
G01 X5.0100 Y16.7640
G00 X5.0100 Y16.7640
G01 F20.00
G01 Z-0.6000
G01 F50.00
G01 X5.0042 Y16.6464
G01 X4.9869 Y16.5299
G01 X4.9583 Y16.4157
G01 X4.9187 Y16.3048
G01 X4.8683 Y16.1983
G01 X4.8078 Y16.0973
G01 X4.7376 Y16.0027
G01 X4.6585 Y15.9155
G01 X4.5713 Y15.8364
G01 X4.4767 Y15.7662
G01 X4.3757 Y15.7057
G01 X4.2692 Y15.6553
G01 X4.1583 Y15.6157
G01 X4.0441 Y15.5871
G01 X3.9276 Y15.5698
G01 X3.8100 Y15.5640
G01 X3.6924 Y15.5698
G01 X3.5759 Y15.5871
G01 X3.4617 Y15.6157
G01 X3.3508 Y15.6553
G01 X3.2443 Y15.7057
G01 X3.1433 Y15.7662
G01 X3.0487 Y15.8364
G01 X2.9615 Y15.9155
G01 X2.8824 Y16.0027
G01 X2.8122 Y16.0973
G01 X2.7517 Y16.1983
G01 X2.7013 Y16.3048
G01 X2.6617 Y16.4157
G01 X2.6331 Y16.5299
G01 X2.6158 Y16.6464
G01 X2.6100 Y16.7640
G01 X2.6158 Y16.8816
G01 X2.6331 Y16.9981
G01 X2.6617 Y17.1123
G01 X2.7013 Y17.2232
G01 X2.7517 Y17.3297
G01 X2.8122 Y17.4307
G01 X2.8824 Y17.5253
G01 X2.9615 Y17.6125
G01 X3.0487 Y17.6916
G01 X3.1433 Y17.7618
G01 X3.2443 Y17.8223
G01 X3.3508 Y17.8727
G01 X3.4617 Y17.9123
G01 X3.5759 Y17.9409
G01 X3.6924 Y17.9582
G01 X3.8100 Y17.9640
G01 X3.9276 Y17.9582
G01 X4.0441 Y17.9409
G01 X4.1583 Y17.9123
G01 X4.2692 Y17.8727
G01 X4.3757 Y17.8223
G01 X4.4767 Y17.7618
G01 X4.5713 Y17.6916
G01 X4.6585 Y17.6125
G01 X4.7376 Y17.5253
G01 X4.8078 Y17.4307
G01 X4.8683 Y17.3297
G01 X4.9187 Y17.2232
G01 X4.9583 Y17.1123
G01 X4.9869 Y16.9981
G01 X5.0042 Y16.8816
G01 X5.0100 Y16.7640
G00 X5.0100 Y16.7640
G01 F20.00
G01 Z-0.8000
G01 F50.00
G01 X5.0042 Y16.6464
G01 X4.9869 Y16.5299
G01 X4.9583 Y16.4157
G01 X4.9187 Y16.3048
G01 X4.8683 Y16.1983
G01 X4.8078 Y16.0973
G01 X4.7376 Y16.0027
G01 X4.6585 Y15.9155
G01 X4.5713 Y15.8364
G01 X4.4767 Y15.7662
G01 X4.3757 Y15.7057
G01 X4.2692 Y15.6553
G01 X4.1583 Y15.6157
G01 X4.0441 Y15.5871
G01 X3.9276 Y15.5698
G01 X3.8100 Y15.5640
G01 X3.6924 Y15.5698
G01 X3.5759 Y15.5871
G01 X3.4617 Y15.6157
G01 X3.3508 Y15.6553
G01 X3.2443 Y15.7057
G01 X3.1433 Y15.7662
G01 X3.0487 Y15.8364
G01 X2.9615 Y15.9155
G01 X2.8824 Y16.0027
G01 X2.8122 Y16.0973
G01 X2.7517 Y16.1983
G01 X2.7013 Y16.3048
G01 X2.6617 Y16.4157
G01 X2.6331 Y16.5299
G01 X2.6158 Y16.6464
G01 X2.6100 Y16.7640
G01 X2.6158 Y16.8816
G01 X2.6331 Y16.9981
G01 X2.6617 Y17.1123
G01 X2.7013 Y17.2232
G01 X2.7517 Y17.3297
G01 X2.8122 Y17.4307
G01 X2.8824 Y17.5253
G01 X2.9615 Y17.6125
G01 X3.0487 Y17.6916
G01 X3.1433 Y17.7618
G01 X3.2443 Y17.8223
G01 X3.3508 Y17.8727
G01 X3.4617 Y17.9123
G01 X3.5759 Y17.9409
G01 X3.6924 Y17.9582
G01 X3.8100 Y17.9640
G01 X3.9276 Y17.9582
G01 X4.0441 Y17.9409
G01 X4.1583 Y17.9123
G01 X4.2692 Y17.8727
G01 X4.3757 Y17.8223
G01 X4.4767 Y17.7618
G01 X4.5713 Y17.6916
G01 X4.6585 Y17.6125
G01 X4.7376 Y17.5253
G01 X4.8078 Y17.4307
G01 X4.8683 Y17.3297
G01 X4.9187 Y17.2232
G01 X4.9583 Y17.1123
G01 X4.9869 Y16.9981
G01 X5.0042 Y16.8816
G01 X5.0100 Y16.7640
G00 X5.0100 Y16.7640
G01 F20.00
G01 Z-1.0000
G01 F50.00
G01 X5.0042 Y16.6464
G01 X4.9869 Y16.5299
G01 X4.9583 Y16.4157
G01 X4.9187 Y16.3048
G01 X4.8683 Y16.1983
G01 X4.8078 Y16.0973
G01 X4.7376 Y16.0027
G01 X4.6585 Y15.9155
G01 X4.5713 Y15.8364
G01 X4.4767 Y15.7662
G01 X4.3757 Y15.7057
G01 X4.2692 Y15.6553
G01 X4.1583 Y15.6157
G01 X4.0441 Y15.5871
G01 X3.9276 Y15.5698
G01 X3.8100 Y15.5640
G01 X3.6924 Y15.5698
G01 X3.5759 Y15.5871
G01 X3.4617 Y15.6157
G01 X3.3508 Y15.6553
G01 X3.2443 Y15.7057
G01 X3.1433 Y15.7662
G01 X3.0487 Y15.8364
G01 X2.9615 Y15.9155
G01 X2.8824 Y16.0027
G01 X2.8122 Y16.0973
G01 X2.7517 Y16.1983
G01 X2.7013 Y16.3048
G01 X2.6617 Y16.4157
G01 X2.6331 Y16.5299
G01 X2.6158 Y16.6464
G01 X2.6100 Y16.7640
G01 X2.6158 Y16.8816
G01 X2.6331 Y16.9981
G01 X2.6617 Y17.1123
G01 X2.7013 Y17.2232
G01 X2.7517 Y17.3297
G01 X2.8122 Y17.4307
G01 X2.8824 Y17.5253
G01 X2.9615 Y17.6125
G01 X3.0487 Y17.6916
G01 X3.1433 Y17.7618
G01 X3.2443 Y17.8223
G01 X3.3508 Y17.8727
G01 X3.4617 Y17.9123
G01 X3.5759 Y17.9409
G01 X3.6924 Y17.9582
G01 X3.8100 Y17.9640
G01 X3.9276 Y17.9582
G01 X4.0441 Y17.9409
G01 X4.1583 Y17.9123
G01 X4.2692 Y17.8727
G01 X4.3757 Y17.8223
G01 X4.4767 Y17.7618
G01 X4.5713 Y17.6916
G01 X4.6585 Y17.6125
G01 X4.7376 Y17.5253
G01 X4.8078 Y17.4307
G01 X4.8683 Y17.3297
G01 X4.9187 Y17.2232
G01 X4.9583 Y17.1123
G01 X4.9869 Y16.9981
G01 X5.0042 Y16.8816
G01 X5.0100 Y16.7640
G00 X5.0100 Y16.7640
G01 F20.00
G01 Z-1.2000
G01 F50.00
G01 X5.0042 Y16.6464
G01 X4.9869 Y16.5299
G01 X4.9583 Y16.4157
G01 X4.9187 Y16.3048
G01 X4.8683 Y16.1983
G01 X4.8078 Y16.0973
G01 X4.7376 Y16.0027
G01 X4.6585 Y15.9155
G01 X4.5713 Y15.8364
G01 X4.4767 Y15.7662
G01 X4.3757 Y15.7057
G01 X4.2692 Y15.6553
G01 X4.1583 Y15.6157
G01 X4.0441 Y15.5871
G01 X3.9276 Y15.5698
G01 X3.8100 Y15.5640
G01 X3.6924 Y15.5698
G01 X3.5759 Y15.5871
G01 X3.4617 Y15.6157
G01 X3.3508 Y15.6553
G01 X3.2443 Y15.7057
G01 X3.1433 Y15.7662
G01 X3.0487 Y15.8364
G01 X2.9615 Y15.9155
G01 X2.8824 Y16.0027
G01 X2.8122 Y16.0973
G01 X2.7517 Y16.1983
G01 X2.7013 Y16.3048
G01 X2.6617 Y16.4157
G01 X2.6331 Y16.5299
G01 X2.6158 Y16.6464
G01 X2.6100 Y16.7640
G01 X2.6158 Y16.8816
G01 X2.6331 Y16.9981
G01 X2.6617 Y17.1123
G01 X2.7013 Y17.2232
G01 X2.7517 Y17.3297
G01 X2.8122 Y17.4307
G01 X2.8824 Y17.5253
G01 X2.9615 Y17.6125
G01 X3.0487 Y17.6916
G01 X3.1433 Y17.7618
G01 X3.2443 Y17.8223
G01 X3.3508 Y17.8727
G01 X3.4617 Y17.9123
G01 X3.5759 Y17.9409
G01 X3.6924 Y17.9582
G01 X3.8100 Y17.9640
G01 X3.9276 Y17.9582
G01 X4.0441 Y17.9409
G01 X4.1583 Y17.9123
G01 X4.2692 Y17.8727
G01 X4.3757 Y17.8223
G01 X4.4767 Y17.7618
G01 X4.5713 Y17.6916
G01 X4.6585 Y17.6125
G01 X4.7376 Y17.5253
G01 X4.8078 Y17.4307
G01 X4.8683 Y17.3297
G01 X4.9187 Y17.2232
G01 X4.9583 Y17.1123
G01 X4.9869 Y16.9981
G01 X5.0042 Y16.8816
G01 X5.0100 Y16.7640
G00 X5.0100 Y16.7640
G01 F20.00
G01 Z-1.4000
G01 F50.00
G01 X5.0042 Y16.6464
G01 X4.9869 Y16.5299
G01 X4.9583 Y16.4157
G01 X4.9187 Y16.3048
G01 X4.8683 Y16.1983
G01 X4.8078 Y16.0973
G01 X4.7376 Y16.0027
G01 X4.6585 Y15.9155
G01 X4.5713 Y15.8364
G01 X4.4767 Y15.7662
G01 X4.3757 Y15.7057
G01 X4.2692 Y15.6553
G01 X4.1583 Y15.6157
G01 X4.0441 Y15.5871
G01 X3.9276 Y15.5698
G01 X3.8100 Y15.5640
G01 X3.6924 Y15.5698
G01 X3.5759 Y15.5871
G01 X3.4617 Y15.6157
G01 X3.3508 Y15.6553
G01 X3.2443 Y15.7057
G01 X3.1433 Y15.7662
G01 X3.0487 Y15.8364
G01 X2.9615 Y15.9155
G01 X2.8824 Y16.0027
G01 X2.8122 Y16.0973
G01 X2.7517 Y16.1983
G01 X2.7013 Y16.3048
G01 X2.6617 Y16.4157
G01 X2.6331 Y16.5299
G01 X2.6158 Y16.6464
G01 X2.6100 Y16.7640
G01 X2.6158 Y16.8816
G01 X2.6331 Y16.9981
G01 X2.6617 Y17.1123
G01 X2.7013 Y17.2232
G01 X2.7517 Y17.3297
G01 X2.8122 Y17.4307
G01 X2.8824 Y17.5253
G01 X2.9615 Y17.6125
G01 X3.0487 Y17.6916
G01 X3.1433 Y17.7618
G01 X3.2443 Y17.8223
G01 X3.3508 Y17.8727
G01 X3.4617 Y17.9123
G01 X3.5759 Y17.9409
G01 X3.6924 Y17.9582
G01 X3.8100 Y17.9640
G01 X3.9276 Y17.9582
G01 X4.0441 Y17.9409
G01 X4.1583 Y17.9123
G01 X4.2692 Y17.8727
G01 X4.3757 Y17.8223
G01 X4.4767 Y17.7618
G01 X4.5713 Y17.6916
G01 X4.6585 Y17.6125
G01 X4.7376 Y17.5253
G01 X4.8078 Y17.4307
G01 X4.8683 Y17.3297
G01 X4.9187 Y17.2232
G01 X4.9583 Y17.1123
G01 X4.9869 Y16.9981
G01 X5.0042 Y16.8816
G01 X5.0100 Y16.7640
G00 X5.0100 Y16.7640
G01 F20.00
G01 Z-1.6000
G01 F50.00
G01 X5.0042 Y16.6464
G01 X4.9869 Y16.5299
G01 X4.9583 Y16.4157
G01 X4.9187 Y16.3048
G01 X4.8683 Y16.1983
G01 X4.8078 Y16.0973
G01 X4.7376 Y16.0027
G01 X4.6585 Y15.9155
G01 X4.5713 Y15.8364
G01 X4.4767 Y15.7662
G01 X4.3757 Y15.7057
G01 X4.2692 Y15.6553
G01 X4.1583 Y15.6157
G01 X4.0441 Y15.5871
G01 X3.9276 Y15.5698
G01 X3.8100 Y15.5640
G01 X3.6924 Y15.5698
G01 X3.5759 Y15.5871
G01 X3.4617 Y15.6157
G01 X3.3508 Y15.6553
G01 X3.2443 Y15.7057
G01 X3.1433 Y15.7662
G01 X3.0487 Y15.8364
G01 X2.9615 Y15.9155
G01 X2.8824 Y16.0027
G01 X2.8122 Y16.0973
G01 X2.7517 Y16.1983
G01 X2.7013 Y16.3048
G01 X2.6617 Y16.4157
G01 X2.6331 Y16.5299
G01 X2.6158 Y16.6464
G01 X2.6100 Y16.7640
G01 X2.6158 Y16.8816
G01 X2.6331 Y16.9981
G01 X2.6617 Y17.1123
G01 X2.7013 Y17.2232
G01 X2.7517 Y17.3297
G01 X2.8122 Y17.4307
G01 X2.8824 Y17.5253
G01 X2.9615 Y17.6125
G01 X3.0487 Y17.6916
G01 X3.1433 Y17.7618
G01 X3.2443 Y17.8223
G01 X3.3508 Y17.8727
G01 X3.4617 Y17.9123
G01 X3.5759 Y17.9409
G01 X3.6924 Y17.9582
G01 X3.8100 Y17.9640
G01 X3.9276 Y17.9582
G01 X4.0441 Y17.9409
G01 X4.1583 Y17.9123
G01 X4.2692 Y17.8727
G01 X4.3757 Y17.8223
G01 X4.4767 Y17.7618
G01 X4.5713 Y17.6916
G01 X4.6585 Y17.6125
G01 X4.7376 Y17.5253
G01 X4.8078 Y17.4307
G01 X4.8683 Y17.3297
G01 X4.9187 Y17.2232
G01 X4.9583 Y17.1123
G01 X4.9869 Y16.9981
G01 X5.0042 Y16.8816
G01 X5.0100 Y16.7640
G00 X5.0100 Y16.7640
G01 F20.00
G01 Z-1.8000
G01 F50.00
G01 X5.0042 Y16.6464
G01 X4.9869 Y16.5299
G01 X4.9583 Y16.4157
G01 X4.9187 Y16.3048
G01 X4.8683 Y16.1983
G01 X4.8078 Y16.0973
G01 X4.7376 Y16.0027
G01 X4.6585 Y15.9155
G01 X4.5713 Y15.8364
G01 X4.4767 Y15.7662
G01 X4.3757 Y15.7057
G01 X4.2692 Y15.6553
G01 X4.1583 Y15.6157
G01 X4.0441 Y15.5871
G01 X3.9276 Y15.5698
G01 X3.8100 Y15.5640
G01 X3.6924 Y15.5698
G01 X3.5759 Y15.5871
G01 X3.4617 Y15.6157
G01 X3.3508 Y15.6553
G01 X3.2443 Y15.7057
G01 X3.1433 Y15.7662
G01 X3.0487 Y15.8364
G01 X2.9615 Y15.9155
G01 X2.8824 Y16.0027
G01 X2.8122 Y16.0973
G01 X2.7517 Y16.1983
G01 X2.7013 Y16.3048
G01 X2.6617 Y16.4157
G01 X2.6331 Y16.5299
G01 X2.6158 Y16.6464
G01 X2.6100 Y16.7640
G01 X2.6158 Y16.8816
G01 X2.6331 Y16.9981
G01 X2.6617 Y17.1123
G01 X2.7013 Y17.2232
G01 X2.7517 Y17.3297
G01 X2.8122 Y17.4307
G01 X2.8824 Y17.5253
G01 X2.9615 Y17.6125
G01 X3.0487 Y17.6916
G01 X3.1433 Y17.7618
G01 X3.2443 Y17.8223
G01 X3.3508 Y17.8727
G01 X3.4617 Y17.9123
G01 X3.5759 Y17.9409
G01 X3.6924 Y17.9582
G01 X3.8100 Y17.9640
G01 X3.9276 Y17.9582
G01 X4.0441 Y17.9409
G01 X4.1583 Y17.9123
G01 X4.2692 Y17.8727
G01 X4.3757 Y17.8223
G01 X4.4767 Y17.7618
G01 X4.5713 Y17.6916
G01 X4.6585 Y17.6125
G01 X4.7376 Y17.5253
G01 X4.8078 Y17.4307
G01 X4.8683 Y17.3297
G01 X4.9187 Y17.2232
G01 X4.9583 Y17.1123
G01 X4.9869 Y16.9981
G01 X5.0042 Y16.8816
G01 X5.0100 Y16.7640
G00 X5.0100 Y16.7640
G01 F20.00
G01 Z-2.0000
G01 F50.00
G01 X5.0042 Y16.6464
G01 X4.9869 Y16.5299
G01 X4.9583 Y16.4157
G01 X4.9187 Y16.3048
G01 X4.8683 Y16.1983
G01 X4.8078 Y16.0973
G01 X4.7376 Y16.0027
G01 X4.6585 Y15.9155
G01 X4.5713 Y15.8364
G01 X4.4767 Y15.7662
G01 X4.3757 Y15.7057
G01 X4.2692 Y15.6553
G01 X4.1583 Y15.6157
G01 X4.0441 Y15.5871
G01 X3.9276 Y15.5698
G01 X3.8100 Y15.5640
G01 X3.6924 Y15.5698
G01 X3.5759 Y15.5871
G01 X3.4617 Y15.6157
G01 X3.3508 Y15.6553
G01 X3.2443 Y15.7057
G01 X3.1433 Y15.7662
G01 X3.0487 Y15.8364
G01 X2.9615 Y15.9155
G01 X2.8824 Y16.0027
G01 X2.8122 Y16.0973
G01 X2.7517 Y16.1983
G01 X2.7013 Y16.3048
G01 X2.6617 Y16.4157
G01 X2.6331 Y16.5299
G01 X2.6158 Y16.6464
G01 X2.6100 Y16.7640
G01 X2.6158 Y16.8816
G01 X2.6331 Y16.9981
G01 X2.6617 Y17.1123
G01 X2.7013 Y17.2232
G01 X2.7517 Y17.3297
G01 X2.8122 Y17.4307
G01 X2.8824 Y17.5253
G01 X2.9615 Y17.6125
G01 X3.0487 Y17.6916
G01 X3.1433 Y17.7618
G01 X3.2443 Y17.8223
G01 X3.3508 Y17.8727
G01 X3.4617 Y17.9123
G01 X3.5759 Y17.9409
G01 X3.6924 Y17.9582
G01 X3.8100 Y17.9640
G01 X3.9276 Y17.9582
G01 X4.0441 Y17.9409
G01 X4.1583 Y17.9123
G01 X4.2692 Y17.8727
G01 X4.3757 Y17.8223
G01 X4.4767 Y17.7618
G01 X4.5713 Y17.6916
G01 X4.6585 Y17.6125
G01 X4.7376 Y17.5253
G01 X4.8078 Y17.4307
G01 X4.8683 Y17.3297
G01 X4.9187 Y17.2232
G01 X4.9583 Y17.1123
G01 X4.9869 Y16.9981
G01 X5.0042 Y16.8816
G01 X5.0100 Y16.7640
G00 Z2.0000
M05
G00 Z2.0000
G00 Z15.00
G00 X0.0 Y0.0


