(G-CODE GENERATED BY FLATCAM v8.994 - www.flatcam.org - Version Date: 2020/11/7)

(Name: fiduciall_edit_1_mill_slot_cnc)
(Type: G-code from Geometry)
(Units: MM)

(Created on Friday, 15 November 2024 at 12:47)

(This preprocessor is used with a motion controller loaded with GRBL firmware.)
(It is configured to be compatible with almost any version of GRBL firmware.)

(TOOL DIAMETER: 1.6 mm)
(Feedrate_XY: 100.0 mm/min)
(Feedrate_Z: 20.0 mm/min)
(Feedrate rapids 1500.0 mm/min)

(Z_Cut: -1.7 mm)
(DepthPerCut: 0.1 mm <=>17 passes)
(Z_Move: 2.0 mm)
(Z Start: None mm)
(Z End: 15.0 mm)
(X,Y End: 0.0000, 0.0000 mm)
(Steps per circle: 64)
(Steps per circle: 64)
(Preprocessor Geometry: grbl_11)

(X range:   -4.0637 ...   31.9437  mm)
(Y range:   -3.6837 ...   24.3237  mm)

(Spindle Speed: 12000.0 RPM)
G21
G90
G17
G94


G01 F100.00

M5             
G00 Z15.0000
G00 X0.0000 Y0.0000                
T1
M6
(MSG, Change to Tool Dia = 1.6000)
M0
G00 Z15.0000

M03 S12000.0
G4 P1.0
G01 F100.00
G00 X2.2893 Y-3.6837
G01 F20.00
G01 Z-0.1000
G01 F100.00
G01 X2.2893 Y-3.6835 F100.00
G01 X5.5908 Y-3.6764 F100.00
G01 X5.5907 Y-3.6765 F100.00
G01 X2.2893 Y-3.6837 F100.00
G00 X2.2893 Y-3.6837
G01 F20.00
G01 Z-0.2000
G01 F100.00
G01 X2.2893 Y-3.6835 F100.00
G01 X5.5908 Y-3.6764 F100.00
G01 X5.5907 Y-3.6765 F100.00
G01 X2.2893 Y-3.6837 F100.00
G00 X2.2893 Y-3.6837
G01 F20.00
G01 Z-0.3000
G01 F100.00
G01 X2.2893 Y-3.6835 F100.00
G01 X5.5908 Y-3.6764 F100.00
G01 X5.5907 Y-3.6765 F100.00
G01 X2.2893 Y-3.6837 F100.00
G00 X2.2893 Y-3.6837
G01 F20.00
G01 Z-0.4000
G01 F100.00
G01 X2.2893 Y-3.6835 F100.00
G01 X5.5908 Y-3.6764 F100.00
G01 X5.5907 Y-3.6765 F100.00
G01 X2.2893 Y-3.6837 F100.00
G00 X2.2893 Y-3.6837
G01 F20.00
G01 Z-0.5000
G01 F100.00
G01 X2.2893 Y-3.6835 F100.00
G01 X5.5908 Y-3.6764 F100.00
G01 X5.5907 Y-3.6765 F100.00
G01 X2.2893 Y-3.6837 F100.00
G00 X2.2893 Y-3.6837
G01 F20.00
G01 Z-0.6000
G01 F100.00
G01 X2.2893 Y-3.6835 F100.00
G01 X5.5908 Y-3.6764 F100.00
G01 X5.5907 Y-3.6765 F100.00
G01 X2.2893 Y-3.6837 F100.00
G00 X2.2893 Y-3.6837
G01 F20.00
G01 Z-0.7000
G01 F100.00
G01 X2.2893 Y-3.6835 F100.00
G01 X5.5908 Y-3.6764 F100.00
G01 X5.5907 Y-3.6765 F100.00
G01 X2.2893 Y-3.6837 F100.00
G00 X2.2893 Y-3.6837
G01 F20.00
G01 Z-0.8000
G01 F100.00
G01 X2.2893 Y-3.6835 F100.00
G01 X5.5908 Y-3.6764 F100.00
G01 X5.5907 Y-3.6765 F100.00
G01 X2.2893 Y-3.6837 F100.00
G00 X2.2893 Y-3.6837
G01 F20.00
G01 Z-0.9000
G01 F100.00
G01 X2.2893 Y-3.6835 F100.00
G01 X5.5908 Y-3.6764 F100.00
G01 X5.5907 Y-3.6765 F100.00
G01 X2.2893 Y-3.6837 F100.00
G00 X2.2893 Y-3.6837
G01 F20.00
G01 Z-1.0000
G01 F100.00
G01 X2.2893 Y-3.6835 F100.00
G01 X5.5908 Y-3.6764 F100.00
G01 X5.5907 Y-3.6765 F100.00
G01 X2.2893 Y-3.6837 F100.00
G00 X2.2893 Y-3.6837
G01 F20.00
G01 Z-1.1000
G01 F100.00
G01 X2.2893 Y-3.6835 F100.00
G01 X5.5908 Y-3.6764 F100.00
G01 X5.5907 Y-3.6765 F100.00
G01 X2.2893 Y-3.6837 F100.00
G00 X2.2893 Y-3.6837
G01 F20.00
G01 Z-1.2000
G01 F100.00
G01 X2.2893 Y-3.6835 F100.00
G01 X5.5908 Y-3.6764 F100.00
G01 X5.5907 Y-3.6765 F100.00
G01 X2.2893 Y-3.6837 F100.00
G00 X2.2893 Y-3.6837
G01 F20.00
G01 Z-1.3000
G01 F100.00
G01 X2.2893 Y-3.6835 F100.00
G01 X5.5908 Y-3.6764 F100.00
G01 X5.5907 Y-3.6765 F100.00
G01 X2.2893 Y-3.6837 F100.00
G00 X2.2893 Y-3.6837
G01 F20.00
G01 Z-1.4000
G01 F100.00
G01 X2.2893 Y-3.6835 F100.00
G01 X5.5908 Y-3.6764 F100.00
G01 X5.5907 Y-3.6765 F100.00
G01 X2.2893 Y-3.6837 F100.00
G00 X2.2893 Y-3.6837
G01 F20.00
G01 Z-1.5000
G01 F100.00
G01 X2.2893 Y-3.6835 F100.00
G01 X5.5908 Y-3.6764 F100.00
G01 X5.5907 Y-3.6765 F100.00
G01 X2.2893 Y-3.6837 F100.00
G00 X2.2893 Y-3.6837
G01 F20.00
G01 Z-1.6000
G01 F100.00
G01 X2.2893 Y-3.6835 F100.00
G01 X5.5908 Y-3.6764 F100.00
G01 X5.5907 Y-3.6765 F100.00
G01 X2.2893 Y-3.6837 F100.00
G00 X2.2893 Y-3.6837
G01 F20.00
G01 Z-1.7000
G01 F100.00
G01 X2.2893 Y-3.6835 F100.00
G01 X5.5908 Y-3.6764 F100.00
G01 X5.5907 Y-3.6765 F100.00
G01 X2.2893 Y-3.6837 F100.00
G00 Z2.0000
G00 X-4.0635 Y16.6693
G01 F20.00
G01 Z-0.1000
G01 F100.00
G01 X-4.0637 Y16.6693 F100.00
G01 X-4.0564 Y19.9708 F100.00
G01 X-4.0563 Y19.9707 F100.00
G01 X-4.0635 Y16.6693 F100.00
G00 X-4.0635 Y16.6693
G01 F20.00
G01 Z-0.2000
G01 F100.00
G01 X-4.0637 Y16.6693 F100.00
G01 X-4.0564 Y19.9708 F100.00
G01 X-4.0563 Y19.9707 F100.00
G01 X-4.0635 Y16.6693 F100.00
G00 X-4.0635 Y16.6693
G01 F20.00
G01 Z-0.3000
G01 F100.00
G01 X-4.0637 Y16.6693 F100.00
G01 X-4.0564 Y19.9708 F100.00
G01 X-4.0563 Y19.9707 F100.00
G01 X-4.0635 Y16.6693 F100.00
G00 X-4.0635 Y16.6693
G01 F20.00
G01 Z-0.4000
G01 F100.00
G01 X-4.0637 Y16.6693 F100.00
G01 X-4.0564 Y19.9708 F100.00
G01 X-4.0563 Y19.9707 F100.00
G01 X-4.0635 Y16.6693 F100.00
G00 X-4.0635 Y16.6693
G01 F20.00
G01 Z-0.5000
G01 F100.00
G01 X-4.0637 Y16.6693 F100.00
G01 X-4.0564 Y19.9708 F100.00
G01 X-4.0563 Y19.9707 F100.00
G01 X-4.0635 Y16.6693 F100.00
G00 X-4.0635 Y16.6693
G01 F20.00
G01 Z-0.6000
G01 F100.00
G01 X-4.0637 Y16.6693 F100.00
G01 X-4.0564 Y19.9708 F100.00
G01 X-4.0563 Y19.9707 F100.00
G01 X-4.0635 Y16.6693 F100.00
G00 X-4.0635 Y16.6693
G01 F20.00
G01 Z-0.7000
G01 F100.00
G01 X-4.0637 Y16.6693 F100.00
G01 X-4.0564 Y19.9708 F100.00
G01 X-4.0563 Y19.9707 F100.00
G01 X-4.0635 Y16.6693 F100.00
G00 X-4.0635 Y16.6693
G01 F20.00
G01 Z-0.8000
G01 F100.00
G01 X-4.0637 Y16.6693 F100.00
G01 X-4.0564 Y19.9708 F100.00
G01 X-4.0563 Y19.9707 F100.00
G01 X-4.0635 Y16.6693 F100.00
G00 X-4.0635 Y16.6693
G01 F20.00
G01 Z-0.9000
G01 F100.00
G01 X-4.0637 Y16.6693 F100.00
G01 X-4.0564 Y19.9708 F100.00
G01 X-4.0563 Y19.9707 F100.00
G01 X-4.0635 Y16.6693 F100.00
G00 X-4.0635 Y16.6693
G01 F20.00
G01 Z-1.0000
G01 F100.00
G01 X-4.0637 Y16.6693 F100.00
G01 X-4.0564 Y19.9708 F100.00
G01 X-4.0563 Y19.9707 F100.00
G01 X-4.0635 Y16.6693 F100.00
G00 X-4.0635 Y16.6693
G01 F20.00
G01 Z-1.1000
G01 F100.00
G01 X-4.0637 Y16.6693 F100.00
G01 X-4.0564 Y19.9708 F100.00
G01 X-4.0563 Y19.9707 F100.00
G01 X-4.0635 Y16.6693 F100.00
G00 X-4.0635 Y16.6693
G01 F20.00
G01 Z-1.2000
G01 F100.00
G01 X-4.0637 Y16.6693 F100.00
G01 X-4.0564 Y19.9708 F100.00
G01 X-4.0563 Y19.9707 F100.00
G01 X-4.0635 Y16.6693 F100.00
G00 X-4.0635 Y16.6693
G01 F20.00
G01 Z-1.3000
G01 F100.00
G01 X-4.0637 Y16.6693 F100.00
G01 X-4.0564 Y19.9708 F100.00
G01 X-4.0563 Y19.9707 F100.00
G01 X-4.0635 Y16.6693 F100.00
G00 X-4.0635 Y16.6693
G01 F20.00
G01 Z-1.4000
G01 F100.00
G01 X-4.0637 Y16.6693 F100.00
G01 X-4.0564 Y19.9708 F100.00
G01 X-4.0563 Y19.9707 F100.00
G01 X-4.0635 Y16.6693 F100.00
G00 X-4.0635 Y16.6693
G01 F20.00
G01 Z-1.5000
G01 F100.00
G01 X-4.0637 Y16.6693 F100.00
G01 X-4.0564 Y19.9708 F100.00
G01 X-4.0563 Y19.9707 F100.00
G01 X-4.0635 Y16.6693 F100.00
G00 X-4.0635 Y16.6693
G01 F20.00
G01 Z-1.6000
G01 F100.00
G01 X-4.0637 Y16.6693 F100.00
G01 X-4.0564 Y19.9708 F100.00
G01 X-4.0563 Y19.9707 F100.00
G01 X-4.0635 Y16.6693 F100.00
G00 X-4.0635 Y16.6693
G01 F20.00
G01 Z-1.7000
G01 F100.00
G01 X-4.0637 Y16.6693 F100.00
G01 X-4.0564 Y19.9708 F100.00
G01 X-4.0563 Y19.9707 F100.00
G01 X-4.0635 Y16.6693 F100.00
G00 Z2.0000
G00 X22.2893 Y24.3163
G01 F20.00
G01 Z-0.1000
G01 F100.00
G01 X22.2893 Y24.3165 F100.00
G01 X25.5908 Y24.3236 F100.00
G01 X25.5907 Y24.3235 F100.00
G01 X22.2893 Y24.3163 F100.00
G00 X22.2893 Y24.3163
G01 F20.00
G01 Z-0.2000
G01 F100.00
G01 X22.2893 Y24.3165 F100.00
G01 X25.5908 Y24.3236 F100.00
G01 X25.5907 Y24.3235 F100.00
G01 X22.2893 Y24.3163 F100.00
G00 X22.2893 Y24.3163
G01 F20.00
G01 Z-0.3000
G01 F100.00
G01 X22.2893 Y24.3165 F100.00
G01 X25.5908 Y24.3236 F100.00
G01 X25.5907 Y24.3235 F100.00
G01 X22.2893 Y24.3163 F100.00
G00 X22.2893 Y24.3163
G01 F20.00
G01 Z-0.4000
G01 F100.00
G01 X22.2893 Y24.3165 F100.00
G01 X25.5908 Y24.3236 F100.00
G01 X25.5907 Y24.3235 F100.00
G01 X22.2893 Y24.3163 F100.00
G00 X22.2893 Y24.3163
G01 F20.00
G01 Z-0.5000
G01 F100.00
G01 X22.2893 Y24.3165 F100.00
G01 X25.5908 Y24.3236 F100.00
G01 X25.5907 Y24.3235 F100.00
G01 X22.2893 Y24.3163 F100.00
G00 X22.2893 Y24.3163
G01 F20.00
G01 Z-0.6000
G01 F100.00
G01 X22.2893 Y24.3165 F100.00
G01 X25.5908 Y24.3236 F100.00
G01 X25.5907 Y24.3235 F100.00
G01 X22.2893 Y24.3163 F100.00
G00 X22.2893 Y24.3163
G01 F20.00
G01 Z-0.7000
G01 F100.00
G01 X22.2893 Y24.3165 F100.00
G01 X25.5908 Y24.3236 F100.00
G01 X25.5907 Y24.3235 F100.00
G01 X22.2893 Y24.3163 F100.00
G00 X22.2893 Y24.3163
G01 F20.00
G01 Z-0.8000
G01 F100.00
G01 X22.2893 Y24.3165 F100.00
G01 X25.5908 Y24.3236 F100.00
G01 X25.5907 Y24.3235 F100.00
G01 X22.2893 Y24.3163 F100.00
G00 X22.2893 Y24.3163
G01 F20.00
G01 Z-0.9000
G01 F100.00
G01 X22.2893 Y24.3165 F100.00
G01 X25.5908 Y24.3236 F100.00
G01 X25.5907 Y24.3235 F100.00
G01 X22.2893 Y24.3163 F100.00
G00 X22.2893 Y24.3163
G01 F20.00
G01 Z-1.0000
G01 F100.00
G01 X22.2893 Y24.3165 F100.00
G01 X25.5908 Y24.3236 F100.00
G01 X25.5907 Y24.3235 F100.00
G01 X22.2893 Y24.3163 F100.00
G00 X22.2893 Y24.3163
G01 F20.00
G01 Z-1.1000
G01 F100.00
G01 X22.2893 Y24.3165 F100.00
G01 X25.5908 Y24.3236 F100.00
G01 X25.5907 Y24.3235 F100.00
G01 X22.2893 Y24.3163 F100.00
G00 X22.2893 Y24.3163
G01 F20.00
G01 Z-1.2000
G01 F100.00
G01 X22.2893 Y24.3165 F100.00
G01 X25.5908 Y24.3236 F100.00
G01 X25.5907 Y24.3235 F100.00
G01 X22.2893 Y24.3163 F100.00
G00 X22.2893 Y24.3163
G01 F20.00
G01 Z-1.3000
G01 F100.00
G01 X22.2893 Y24.3165 F100.00
G01 X25.5908 Y24.3236 F100.00
G01 X25.5907 Y24.3235 F100.00
G01 X22.2893 Y24.3163 F100.00
G00 X22.2893 Y24.3163
G01 F20.00
G01 Z-1.4000
G01 F100.00
G01 X22.2893 Y24.3165 F100.00
G01 X25.5908 Y24.3236 F100.00
G01 X25.5907 Y24.3235 F100.00
G01 X22.2893 Y24.3163 F100.00
G00 X22.2893 Y24.3163
G01 F20.00
G01 Z-1.5000
G01 F100.00
G01 X22.2893 Y24.3165 F100.00
G01 X25.5908 Y24.3236 F100.00
G01 X25.5907 Y24.3235 F100.00
G01 X22.2893 Y24.3163 F100.00
G00 X22.2893 Y24.3163
G01 F20.00
G01 Z-1.6000
G01 F100.00
G01 X22.2893 Y24.3165 F100.00
G01 X25.5908 Y24.3236 F100.00
G01 X25.5907 Y24.3235 F100.00
G01 X22.2893 Y24.3163 F100.00
G00 X22.2893 Y24.3163
G01 F20.00
G01 Z-1.7000
G01 F100.00
G01 X22.2893 Y24.3165 F100.00
G01 X25.5908 Y24.3236 F100.00
G01 X25.5907 Y24.3235 F100.00
G01 X22.2893 Y24.3163 F100.00
G00 Z2.0000
G00 X31.9365 Y0.6693
G01 F20.00
G01 Z-0.1000
G01 F100.00
G01 X31.9363 Y0.6693 F100.00
G01 X31.9436 Y3.9708 F100.00
G01 X31.9437 Y3.9707 F100.00
G01 X31.9365 Y0.6693 F100.00
G00 X31.9365 Y0.6693
G01 F20.00
G01 Z-0.2000
G01 F100.00
G01 X31.9363 Y0.6693 F100.00
G01 X31.9436 Y3.9708 F100.00
G01 X31.9437 Y3.9707 F100.00
G01 X31.9365 Y0.6693 F100.00
G00 X31.9365 Y0.6693
G01 F20.00
G01 Z-0.3000
G01 F100.00
G01 X31.9363 Y0.6693 F100.00
G01 X31.9436 Y3.9708 F100.00
G01 X31.9437 Y3.9707 F100.00
G01 X31.9365 Y0.6693 F100.00
G00 X31.9365 Y0.6693
G01 F20.00
G01 Z-0.4000
G01 F100.00
G01 X31.9363 Y0.6693 F100.00
G01 X31.9436 Y3.9708 F100.00
G01 X31.9437 Y3.9707 F100.00
G01 X31.9365 Y0.6693 F100.00
G00 X31.9365 Y0.6693
G01 F20.00
G01 Z-0.5000
G01 F100.00
G01 X31.9363 Y0.6693 F100.00
G01 X31.9436 Y3.9708 F100.00
G01 X31.9437 Y3.9707 F100.00
G01 X31.9365 Y0.6693 F100.00
G00 X31.9365 Y0.6693
G01 F20.00
G01 Z-0.6000
G01 F100.00
G01 X31.9363 Y0.6693 F100.00
G01 X31.9436 Y3.9708 F100.00
G01 X31.9437 Y3.9707 F100.00
G01 X31.9365 Y0.6693 F100.00
G00 X31.9365 Y0.6693
G01 F20.00
G01 Z-0.7000
G01 F100.00
G01 X31.9363 Y0.6693 F100.00
G01 X31.9436 Y3.9708 F100.00
G01 X31.9437 Y3.9707 F100.00
G01 X31.9365 Y0.6693 F100.00
G00 X31.9365 Y0.6693
G01 F20.00
G01 Z-0.8000
G01 F100.00
G01 X31.9363 Y0.6693 F100.00
G01 X31.9436 Y3.9708 F100.00
G01 X31.9437 Y3.9707 F100.00
G01 X31.9365 Y0.6693 F100.00
G00 X31.9365 Y0.6693
G01 F20.00
G01 Z-0.9000
G01 F100.00
G01 X31.9363 Y0.6693 F100.00
G01 X31.9436 Y3.9708 F100.00
G01 X31.9437 Y3.9707 F100.00
G01 X31.9365 Y0.6693 F100.00
G00 X31.9365 Y0.6693
G01 F20.00
G01 Z-1.0000
G01 F100.00
G01 X31.9363 Y0.6693 F100.00
G01 X31.9436 Y3.9708 F100.00
G01 X31.9437 Y3.9707 F100.00
G01 X31.9365 Y0.6693 F100.00
G00 X31.9365 Y0.6693
G01 F20.00
G01 Z-1.1000
G01 F100.00
G01 X31.9363 Y0.6693 F100.00
G01 X31.9436 Y3.9708 F100.00
G01 X31.9437 Y3.9707 F100.00
G01 X31.9365 Y0.6693 F100.00
G00 X31.9365 Y0.6693
G01 F20.00
G01 Z-1.2000
G01 F100.00
G01 X31.9363 Y0.6693 F100.00
G01 X31.9436 Y3.9708 F100.00
G01 X31.9437 Y3.9707 F100.00
G01 X31.9365 Y0.6693 F100.00
G00 X31.9365 Y0.6693
G01 F20.00
G01 Z-1.3000
G01 F100.00
G01 X31.9363 Y0.6693 F100.00
G01 X31.9436 Y3.9708 F100.00
G01 X31.9437 Y3.9707 F100.00
G01 X31.9365 Y0.6693 F100.00
G00 X31.9365 Y0.6693
G01 F20.00
G01 Z-1.4000
G01 F100.00
G01 X31.9363 Y0.6693 F100.00
G01 X31.9436 Y3.9708 F100.00
G01 X31.9437 Y3.9707 F100.00
G01 X31.9365 Y0.6693 F100.00
G00 X31.9365 Y0.6693
G01 F20.00
G01 Z-1.5000
G01 F100.00
G01 X31.9363 Y0.6693 F100.00
G01 X31.9436 Y3.9708 F100.00
G01 X31.9437 Y3.9707 F100.00
G01 X31.9365 Y0.6693 F100.00
G00 X31.9365 Y0.6693
G01 F20.00
G01 Z-1.6000
G01 F100.00
G01 X31.9363 Y0.6693 F100.00
G01 X31.9436 Y3.9708 F100.00
G01 X31.9437 Y3.9707 F100.00
G01 X31.9365 Y0.6693 F100.00
G00 X31.9365 Y0.6693
G01 F20.00
G01 Z-1.7000
G01 F100.00
G01 X31.9363 Y0.6693 F100.00
G01 X31.9436 Y3.9708 F100.00
G01 X31.9437 Y3.9707 F100.00
G01 X31.9365 Y0.6693 F100.00
G00 Z2.0000
M05
G00 Z2.0000
G00 Z15.00
G00 X0.0 Y0.0


