(G-CODE GENERATED BY FLATCAM v8.994 - www.flatcam.org - Version Date: 2020/11/7)

(Name: FIDUCIAL_edit_mill_slot_cnc)
(Type: G-code from Geometry)
(Units: MM)

(Created on Thursday, 14 November 2024 at 18:56)

(This preprocessor is the default preprocessor used by FlatCAM.)
(It is made to work with MACH3 compatible motion controllers.)

(TOOL DIAMETER: 0.8 mm)
(Feedrate_XY: 50.0 mm/min)
(Feedrate_Z: 20.0 mm/min)
(Feedrate rapids 1500.0 mm/min)

(Z_Cut: -2.0 mm)
(DepthPerCut: 0.2 mm <=>10 passes)
(Z_Move: 2.0 mm)
(Z Start: None mm)
(Z End: 15.0 mm)
(X,Y End: 0.0000, 0.0000 mm)
(Steps per circle: 64)
(Preprocessor Geometry: default)

(X range:   -2.0001 ...   31.0001  mm)
(Y range:   -3.0001 ...   23.0001  mm)

(Spindle Speed: 12000.0 RPM)
G21
G90
G94

G01 F50.00

M5
G00 Z15.0000
G00 X0.0000 Y0.0000
T1
M6    
(MSG, Change to Tool Dia = 0.8000)
M0
G00 Z15.0000

M03 S12000.0
G01 F50.00
G00 X6.0902 Y-2.9999
G01 F20.00
G01 Z-0.2000
G01 F50.00
G01 X6.0902 Y-3.0001
G01 X1.9097 Y-3.0000
G01 X1.9098 Y-2.9999
G01 X6.0902 Y-2.9999
G00 X6.0902 Y-2.9999
G01 F20.00
G01 Z-0.4000
G01 F50.00
G01 X6.0902 Y-3.0001
G01 X1.9097 Y-3.0000
G01 X1.9098 Y-2.9999
G01 X6.0902 Y-2.9999
G00 X6.0902 Y-2.9999
G01 F20.00
G01 Z-0.6000
G01 F50.00
G01 X6.0902 Y-3.0001
G01 X1.9097 Y-3.0000
G01 X1.9098 Y-2.9999
G01 X6.0902 Y-2.9999
G00 X6.0902 Y-2.9999
G01 F20.00
G01 Z-0.8000
G01 F50.00
G01 X6.0902 Y-3.0001
G01 X1.9097 Y-3.0000
G01 X1.9098 Y-2.9999
G01 X6.0902 Y-2.9999
G00 X6.0902 Y-2.9999
G01 F20.00
G01 Z-1.0000
G01 F50.00
G01 X6.0902 Y-3.0001
G01 X1.9097 Y-3.0000
G01 X1.9098 Y-2.9999
G01 X6.0902 Y-2.9999
G00 X6.0902 Y-2.9999
G01 F20.00
G01 Z-1.2000
G01 F50.00
G01 X6.0902 Y-3.0001
G01 X1.9097 Y-3.0000
G01 X1.9098 Y-2.9999
G01 X6.0902 Y-2.9999
G00 X6.0902 Y-2.9999
G01 F20.00
G01 Z-1.4000
G01 F50.00
G01 X6.0902 Y-3.0001
G01 X1.9097 Y-3.0000
G01 X1.9098 Y-2.9999
G01 X6.0902 Y-2.9999
G00 X6.0902 Y-2.9999
G01 F20.00
G01 Z-1.6000
G01 F50.00
G01 X6.0902 Y-3.0001
G01 X1.9097 Y-3.0000
G01 X1.9098 Y-2.9999
G01 X6.0902 Y-2.9999
G00 X6.0902 Y-2.9999
G01 F20.00
G01 Z-1.8000
G01 F50.00
G01 X6.0902 Y-3.0001
G01 X1.9097 Y-3.0000
G01 X1.9098 Y-2.9999
G01 X6.0902 Y-2.9999
G00 X6.0902 Y-2.9999
G01 F20.00
G01 Z-2.0000
G01 F50.00
G01 X6.0902 Y-3.0001
G01 X1.9097 Y-3.0000
G01 X1.9098 Y-2.9999
G01 X6.0902 Y-2.9999
G00 Z2.0000
G00 X-2.0001 Y20.0902
G01 F20.00
G01 Z-0.2000
G01 F50.00
G01 X-1.9999 Y20.0902
G01 X-2.0000 Y15.9097
G01 X-2.0001 Y15.9098
G01 X-2.0001 Y20.0902
G00 X-2.0001 Y20.0902
G01 F20.00
G01 Z-0.4000
G01 F50.00
G01 X-1.9999 Y20.0902
G01 X-2.0000 Y15.9097
G01 X-2.0001 Y15.9098
G01 X-2.0001 Y20.0902
G00 X-2.0001 Y20.0902
G01 F20.00
G01 Z-0.6000
G01 F50.00
G01 X-1.9999 Y20.0902
G01 X-2.0000 Y15.9097
G01 X-2.0001 Y15.9098
G01 X-2.0001 Y20.0902
G00 X-2.0001 Y20.0902
G01 F20.00
G01 Z-0.8000
G01 F50.00
G01 X-1.9999 Y20.0902
G01 X-2.0000 Y15.9097
G01 X-2.0001 Y15.9098
G01 X-2.0001 Y20.0902
G00 X-2.0001 Y20.0902
G01 F20.00
G01 Z-1.0000
G01 F50.00
G01 X-1.9999 Y20.0902
G01 X-2.0000 Y15.9097
G01 X-2.0001 Y15.9098
G01 X-2.0001 Y20.0902
G00 X-2.0001 Y20.0902
G01 F20.00
G01 Z-1.2000
G01 F50.00
G01 X-1.9999 Y20.0902
G01 X-2.0000 Y15.9097
G01 X-2.0001 Y15.9098
G01 X-2.0001 Y20.0902
G00 X-2.0001 Y20.0902
G01 F20.00
G01 Z-1.4000
G01 F50.00
G01 X-1.9999 Y20.0902
G01 X-2.0000 Y15.9097
G01 X-2.0001 Y15.9098
G01 X-2.0001 Y20.0902
G00 X-2.0001 Y20.0902
G01 F20.00
G01 Z-1.6000
G01 F50.00
G01 X-1.9999 Y20.0902
G01 X-2.0000 Y15.9097
G01 X-2.0001 Y15.9098
G01 X-2.0001 Y20.0902
G00 X-2.0001 Y20.0902
G01 F20.00
G01 Z-1.8000
G01 F50.00
G01 X-1.9999 Y20.0902
G01 X-2.0000 Y15.9097
G01 X-2.0001 Y15.9098
G01 X-2.0001 Y20.0902
G00 X-2.0001 Y20.0902
G01 F20.00
G01 Z-2.0000
G01 F50.00
G01 X-1.9999 Y20.0902
G01 X-2.0000 Y15.9097
G01 X-2.0001 Y15.9098
G01 X-2.0001 Y20.0902
G00 Z2.0000
G00 X26.0902 Y23.0001
G01 F20.00
G01 Z-0.2000
G01 F50.00
G01 X26.0902 Y22.9999
G01 X21.9097 Y23.0000
G01 X21.9098 Y23.0001
G01 X26.0902 Y23.0001
G00 X26.0902 Y23.0001
G01 F20.00
G01 Z-0.4000
G01 F50.00
G01 X26.0902 Y22.9999
G01 X21.9097 Y23.0000
G01 X21.9098 Y23.0001
G01 X26.0902 Y23.0001
G00 X26.0902 Y23.0001
G01 F20.00
G01 Z-0.6000
G01 F50.00
G01 X26.0902 Y22.9999
G01 X21.9097 Y23.0000
G01 X21.9098 Y23.0001
G01 X26.0902 Y23.0001
G00 X26.0902 Y23.0001
G01 F20.00
G01 Z-0.8000
G01 F50.00
G01 X26.0902 Y22.9999
G01 X21.9097 Y23.0000
G01 X21.9098 Y23.0001
G01 X26.0902 Y23.0001
G00 X26.0902 Y23.0001
G01 F20.00
G01 Z-1.0000
G01 F50.00
G01 X26.0902 Y22.9999
G01 X21.9097 Y23.0000
G01 X21.9098 Y23.0001
G01 X26.0902 Y23.0001
G00 X26.0902 Y23.0001
G01 F20.00
G01 Z-1.2000
G01 F50.00
G01 X26.0902 Y22.9999
G01 X21.9097 Y23.0000
G01 X21.9098 Y23.0001
G01 X26.0902 Y23.0001
G00 X26.0902 Y23.0001
G01 F20.00
G01 Z-1.4000
G01 F50.00
G01 X26.0902 Y22.9999
G01 X21.9097 Y23.0000
G01 X21.9098 Y23.0001
G01 X26.0902 Y23.0001
G00 X26.0902 Y23.0001
G01 F20.00
G01 Z-1.6000
G01 F50.00
G01 X26.0902 Y22.9999
G01 X21.9097 Y23.0000
G01 X21.9098 Y23.0001
G01 X26.0902 Y23.0001
G00 X26.0902 Y23.0001
G01 F20.00
G01 Z-1.8000
G01 F50.00
G01 X26.0902 Y22.9999
G01 X21.9097 Y23.0000
G01 X21.9098 Y23.0001
G01 X26.0902 Y23.0001
G00 X26.0902 Y23.0001
G01 F20.00
G01 Z-2.0000
G01 F50.00
G01 X26.0902 Y22.9999
G01 X21.9097 Y23.0000
G01 X21.9098 Y23.0001
G01 X26.0902 Y23.0001
G00 Z2.0000
G00 X31.0001 Y-0.0902
G01 F20.00
G01 Z-0.2000
G01 F50.00
G01 X30.9999 Y-0.0902
G01 X31.0000 Y4.0903
G01 X31.0001 Y4.0902
G01 X31.0001 Y-0.0902
G00 X31.0001 Y-0.0902
G01 F20.00
G01 Z-0.4000
G01 F50.00
G01 X30.9999 Y-0.0902
G01 X31.0000 Y4.0903
G01 X31.0001 Y4.0902
G01 X31.0001 Y-0.0902
G00 X31.0001 Y-0.0902
G01 F20.00
G01 Z-0.6000
G01 F50.00
G01 X30.9999 Y-0.0902
G01 X31.0000 Y4.0903
G01 X31.0001 Y4.0902
G01 X31.0001 Y-0.0902
G00 X31.0001 Y-0.0902
G01 F20.00
G01 Z-0.8000
G01 F50.00
G01 X30.9999 Y-0.0902
G01 X31.0000 Y4.0903
G01 X31.0001 Y4.0902
G01 X31.0001 Y-0.0902
G00 X31.0001 Y-0.0902
G01 F20.00
G01 Z-1.0000
G01 F50.00
G01 X30.9999 Y-0.0902
G01 X31.0000 Y4.0903
G01 X31.0001 Y4.0902
G01 X31.0001 Y-0.0902
G00 X31.0001 Y-0.0902
G01 F20.00
G01 Z-1.2000
G01 F50.00
G01 X30.9999 Y-0.0902
G01 X31.0000 Y4.0903
G01 X31.0001 Y4.0902
G01 X31.0001 Y-0.0902
G00 X31.0001 Y-0.0902
G01 F20.00
G01 Z-1.4000
G01 F50.00
G01 X30.9999 Y-0.0902
G01 X31.0000 Y4.0903
G01 X31.0001 Y4.0902
G01 X31.0001 Y-0.0902
G00 X31.0001 Y-0.0902
G01 F20.00
G01 Z-1.6000
G01 F50.00
G01 X30.9999 Y-0.0902
G01 X31.0000 Y4.0903
G01 X31.0001 Y4.0902
G01 X31.0001 Y-0.0902
G00 X31.0001 Y-0.0902
G01 F20.00
G01 Z-1.8000
G01 F50.00
G01 X30.9999 Y-0.0902
G01 X31.0000 Y4.0903
G01 X31.0001 Y4.0902
G01 X31.0001 Y-0.0902
G00 X31.0001 Y-0.0902
G01 F20.00
G01 Z-2.0000
G01 F50.00
G01 X30.9999 Y-0.0902
G01 X31.0000 Y4.0903
G01 X31.0001 Y4.0902
G01 X31.0001 Y-0.0902
G00 Z2.0000
M05
G00 Z2.0000
G00 Z15.00
G00 X0.0 Y0.0


